public/assets/img/save3.svg

<svg width="55" height="54" viewBox="0 0 55 54" fill="none" xmlns="http://www.w3.org/2000/svg">
<path d="M32.1515 40.1838C31.8548 39.6794 31.1978 39.5065 30.6841 39.7978L28.5742 40.9938V38.6018C28.5742 38.0193 28.0932 37.5471 27.5 37.5471C26.9068 37.5471 26.4258 38.0193 26.4258 38.6018V40.9938L24.3159 39.7978C23.8019 39.5066 23.1452 39.6794 22.8485 40.1838C22.5518 40.6883 22.7279 41.3333 23.2417 41.6245L25.3516 42.8205L23.2417 44.0165C22.7279 44.3077 22.5518 44.9527 22.8485 45.4572C23.0476 45.7955 23.4085 45.9846 23.7799 45.9846C23.9621 45.9846 24.1468 45.939 24.3159 45.8432L26.4258 44.6472V47.0392C26.4258 47.6217 26.9068 48.0938 27.5 48.0938C28.0932 48.0938 28.5742 47.6217 28.5742 47.0392V44.6472L30.6841 45.8432C30.8533 45.939 31.0379 45.9846 31.2201 45.9846C31.5914 45.9846 31.9524 45.7955 32.1515 45.4572C32.4482 44.9527 32.2721 44.3077 31.7583 44.0165L29.6484 42.8205L31.7583 41.6245C32.2721 41.3333 32.4481 40.6883 32.1515 40.1838Z" fill="#90A1AE"/>
<path d="M17.4347 40.1838C17.1381 39.6794 16.4811 39.5065 15.9673 39.7978L13.8574 40.9938V38.6018C13.8574 38.0193 13.3764 37.5471 12.7832 37.5471C12.19 37.5471 11.709 38.0193 11.709 38.6018V40.9938L9.59911 39.7978C9.08521 39.5066 8.42854 39.6794 8.13173 40.1838C7.83503 40.6883 8.01109 41.3333 8.52489 41.6245L10.6348 42.8205L8.52489 44.0165C8.01109 44.3077 7.83503 44.9527 8.13173 45.4572C8.33078 45.7955 8.69172 45.9846 9.06308 45.9846C9.24526 45.9846 9.43003 45.939 9.59911 45.8432L11.709 44.6472V47.0392C11.709 47.6217 12.19 48.0938 12.7832 48.0938C13.3764 48.0938 13.8574 47.6217 13.8574 47.0392V44.6472L15.9673 45.8432C16.1365 45.939 16.3211 45.9846 16.5033 45.9846C16.8746 45.9846 17.2356 45.7955 17.4347 45.4572C17.7314 44.9527 17.5553 44.3077 17.0415 44.0165L14.9316 42.8205L17.0415 41.6245C17.5553 41.3333 17.7313 40.6883 17.4347 40.1838Z" fill="#90A1AE"/>
<path d="M37.5653 45.4572C37.7644 45.7955 38.1253 45.9846 38.4967 45.9846C38.6789 45.9846 38.8636 45.939 39.0327 45.8432L41.1426 44.6472V47.0392C41.1426 47.6217 41.6236 48.0938 42.2168 48.0938C42.81 48.0938 43.291 47.6217 43.291 47.0392V44.6472L45.4009 45.8432C45.5701 45.939 45.7547 45.9846 45.9369 45.9846C46.3082 45.9846 46.6692 45.7955 46.8683 45.4572C47.165 44.9527 46.9889 44.3077 46.4751 44.0165L44.3652 42.8205L46.4751 41.6245C46.9889 41.3333 47.165 40.6883 46.8683 40.1838C46.5717 39.6794 45.9147 39.5065 45.4009 39.7978L43.291 40.9938V38.6018C43.291 38.0193 42.81 37.5471 42.2168 37.5471C41.6236 37.5471 41.1426 38.0193 41.1426 38.6018V40.9938L39.0327 39.7978C38.5187 39.5066 37.862 39.6794 37.5653 40.1838C37.2686 40.6883 37.4447 41.3333 37.9585 41.6245L40.0684 42.8205L37.9585 44.0165C37.4447 44.3077 37.2686 44.9527 37.5653 45.4572Z" fill="#90A1AE"/>
<path d="M49.6289 31.641H32.3408C31.7476 31.641 31.2665 32.1131 31.2665 32.6956C31.2665 33.2781 31.7476 33.7503 32.3408 33.7503H49.6289C51.4059 33.7503 52.8516 35.1697 52.8516 36.9143V48.7266C52.8516 50.4713 51.4059 51.8907 49.6289 51.8907H5.37109C3.59412 51.8907 2.14844 50.4713 2.14844 48.7266V36.9143C2.14844 35.1697 3.59412 33.7503 5.37109 33.7503H22.6728C23.266 33.7503 23.747 33.2781 23.747 32.6956C23.747 32.1131 23.266 31.641 22.6728 31.641H5.37109C2.40947 31.641 0 34.0066 0 36.9143V48.7266C0 51.6344 2.40947 54 5.37109 54H49.6289C52.5905 54 55 51.6344 55 48.7266V36.9143C55 34.0066 52.5905 31.641 49.6289 31.641Z" fill="#90A1AE"/>
<path d="M27.5 22.4654C28.0932 22.4654 28.5743 21.9933 28.5743 21.4108V16.9046C28.5743 16.3221 28.0932 15.8499 27.5 15.8499C26.9068 15.8499 26.4258 16.3221 26.4258 16.9046V21.4108C26.4258 21.9933 26.9067 22.4654 27.5 22.4654Z" fill="#90A1AE"/>
<path d="M19.7656 29.1098H35.2344C37.7222 29.1098 39.7461 27.1227 39.7461 24.6801V13.6351C39.7461 11.1926 37.7222 9.20548 35.2344 9.20548H35.0195V7.3827C35.0195 3.31188 31.6463 0 27.5 0C23.3537 0 19.9805 3.31188 19.9805 7.3827V9.20548H19.7656C17.2778 9.20548 15.2539 11.1926 15.2539 13.6351V24.6801C15.2539 27.1227 17.2778 29.1098 19.7656 29.1098ZM22.1289 7.3827C22.1289 4.47497 24.5384 2.10934 27.5 2.10934C30.4616 2.10934 32.8711 4.47497 32.8711 7.3827V9.20548H22.1289V7.3827ZM17.4023 13.6351C17.4023 12.3557 18.4625 11.3148 19.7656 11.3148H35.2344C36.5375 11.3148 37.5977 12.3557 37.5977 13.6351V24.6801C37.5977 25.9596 36.5375 27.0004 35.2344 27.0004H19.7656C18.4625 27.0004 17.4023 25.9596 17.4023 24.6801V13.6351Z" fill="#90A1AE"/>
<path d="M27.5064 33.7573C27.7889 33.7573 28.066 33.6445 28.2658 33.4483C28.4667 33.2521 28.5806 32.98 28.5806 32.7026C28.5806 32.4242 28.4667 32.1531 28.2658 31.957C28.066 31.7608 27.7889 31.6479 27.5064 31.6479C27.2238 31.6479 26.9467 31.7608 26.747 31.957C26.5472 32.1531 26.4321 32.4242 26.4321 32.7026C26.4321 32.98 26.5471 33.2521 26.747 33.4483C26.9468 33.6445 27.2239 33.7573 27.5064 33.7573Z" fill="#90A1AE"/>
</svg>

<svg width="55" height="54" fill="none" xmlns="http://www.w3.org/2000/svg"><path d="M32.151 40.184a1.085 1.085 0 0 0-1.467-.386l-2.11 1.196v-2.392c0-.583-.48-1.055-1.074-1.055-.593 0-1.074.472-1.074 1.055v2.392l-2.11-1.196a1.085 1.085 0 0 0-1.467.386c-.297.504-.121 1.15.393 1.44l2.11 1.197-2.11 1.196c-.514.29-.69.936-.393 1.44a1.085 1.085 0 0 0 1.467.386l2.11-1.196v2.392c0 .583.48 1.055 1.074 1.055.593 0 1.074-.472 1.074-1.055v-2.392l2.11 1.196a1.085 1.085 0 0 0 1.467-.386c.297-.504.121-1.15-.393-1.44l-2.11-1.197 2.11-1.196c.514-.29.69-.936.393-1.44ZM17.435 40.184a1.085 1.085 0 0 0-1.468-.386l-2.11 1.196v-2.392c0-.583-.48-1.055-1.074-1.055-.593 0-1.074.472-1.074 1.055v2.392l-2.11-1.196a1.085 1.085 0 0 0-1.467.386c-.297.504-.12 1.15.393 1.44l2.11 1.197-2.11 1.196c-.514.29-.69.936-.393 1.44a1.085 1.085 0 0 0 1.467.386l2.11-1.196v2.392c0 .583.481 1.055 1.074 1.055.593 0 1.074-.472 1.074-1.055v-2.392l2.11 1.196a1.085 1.085 0 0 0 1.468-.386c.296-.504.12-1.15-.393-1.44l-2.11-1.197 2.11-1.196c.513-.29.69-.936.393-1.44ZM37.565 45.457a1.085 1.085 0 0 0 1.467.386l2.11-1.196v2.392c0 .583.482 1.055 1.075 1.055s1.074-.472 1.074-1.055v-2.392l2.11 1.196a1.085 1.085 0 0 0 1.467-.386c.297-.504.12-1.15-.393-1.44l-2.11-1.197 2.11-1.196c.514-.29.69-.936.393-1.44a1.085 1.085 0 0 0-1.467-.386l-2.11 1.196v-2.392c0-.583-.481-1.055-1.074-1.055-.593 0-1.074.472-1.074 1.055v2.392l-2.11-1.196a1.085 1.085 0 0 0-1.468.386c-.296.504-.12 1.15.394 1.44l2.11 1.197-2.11 1.196c-.514.29-.69.936-.394 1.44Z" fill="#90A1AE"/><path d="M49.629 31.641H32.34c-.593 0-1.075.472-1.075 1.055 0 .582.482 1.054 1.075 1.054h17.288c1.777 0 3.223 1.42 3.223 3.164v11.813c0 1.744-1.446 3.164-3.223 3.164H5.37c-1.777 0-3.223-1.42-3.223-3.164V36.914c0-1.744 1.446-3.164 3.223-3.164h17.302c.593 0 1.074-.472 1.074-1.054 0-.583-.481-1.055-1.074-1.055H5.37C2.41 31.641 0 34.007 0 36.914v11.813C0 51.634 2.41 54 5.371 54H49.63C52.59 54 55 51.634 55 48.727V36.914c0-2.907-2.41-5.273-5.371-5.273ZM27.5 22.465c.593 0 1.074-.472 1.074-1.054v-4.506c0-.583-.48-1.055-1.074-1.055-.593 0-1.074.472-1.074 1.055v4.506c0 .582.48 1.054 1.074 1.054Z" fill="#90A1AE"/><path d="M19.766 29.11h15.468c2.488 0 4.512-1.987 4.512-4.43V13.635c0-2.442-2.024-4.43-4.512-4.43h-.215V7.383C35.02 3.312 31.646 0 27.5 0s-7.52 3.312-7.52 7.383v1.822h-.214c-2.488 0-4.512 1.988-4.512 4.43V24.68c0 2.443 2.024 4.43 4.512 4.43Zm2.363-21.727c0-2.908 2.41-5.274 5.371-5.274 2.962 0 5.371 2.366 5.371 5.274v1.822H22.13V7.383Zm-4.727 6.252c0-1.28 1.06-2.32 2.364-2.32h15.468c1.303 0 2.364 1.04 2.364 2.32V24.68c0 1.28-1.06 2.32-2.364 2.32H19.766c-1.303 0-2.364-1.04-2.364-2.32V13.635ZM27.506 33.757c.283 0 .56-.112.76-.309.2-.196.315-.468.315-.745 0-.279-.114-.55-.315-.746-.2-.196-.477-.31-.76-.31-.282 0-.56.114-.759.31-.2.196-.315.467-.315.746 0 .277.115.55.315.745.2.197.477.31.76.31Z" fill="#90A1AE"/></svg>
